X:216
T:Dunkeld Bridge
R:Reel
C:Niel Gow
N:"Last tune composed by Niel Gow"
B:The Athole Collection
M:C|
L:1/8
K:F
c|~f2 af egce|~f2 af gbeg|~f2 af egcb|afge ~f2f:|
c|AFcA fcdB|AcfA GFEC|AFcA fcdB|AFGE ~F2FB|AFcA fcdB|
AcfA GFEC|AFcA dBcb|afge ~f2f||

